!! 00000] TT[00
!!!OTL: Gechang meili de jiaxiang
!!!ARE: Guizhou
!! Ethnic Group: Miao
!! Zhongguo Minge Xuan, S. 74
!!!SCT: C1157
!!!YEM: Copyright 1995, estate of Helmut Schaffrath.
**kern
*ICvox
*Ivox
!! 5/82+3 metric grouping
!! Mixed meters:  2/4; 3/4
*MZ
*k[f#c#g#]
*A:
{4r
8.ee
16cc#
=1
[2ee
=2
4ee]
16ee
16aa
16ee
16cc#
=3
4a
4cc#
=4
2ee
=5
8aa
8r}
{8.ee
16cc#
=6
[2ee
=7
4ee]
16ee
16aa
16ee
16cc#
4a
=8
*M2/4
4.ccn
16a
16f#
=9
8e
8r}
{8ee
8cc#
=10
[2ee
=11
4ee]
16ee
16aa
16eee
16cc#
=12
4.a
8f#
=13
2e}
=14
{16ee
16cc#
8ee
16ee
16aa
16ee
16cc#
8a
=15
16ee
16cc#
8ee
16ee
16aa
16eee
16cc#
8a
=16
16ee
16cc#
8ee
16ee
16aa
16ee
16cc#
8a}
{4.ccn
16a
16f#
=17
4e
4r}
==
!!!AGN: Shange, Feige
!! Viele Fermaten, Glissandi. Vermutlich w„re "FREI" die beste
!!    L”sung
!!!ONB: ESAC (Essen Associative Code) Database: CHINA_089
!!!AMT: irregular
!!!AIN: vox
!!!EED: Helmut Schaffrath
!!!EEV: 1.0
*-
!!!ONB: Tied note syntax fixed by Craig Sapp, 2004/05/03/
